img/icons/02.svg

<svg width="60" height="60" viewBox="0 0 60 60" fill="none" xmlns="http://www.w3.org/2000/svg">
<g clip-path="url(#clip0_300_265)">
<path d="M25.8621 25.8637C25.8621 32.1484 20.7675 37.243 14.4828 37.243C8.19814 37.243 3.10352 32.1484 3.10352 25.8637C3.10352 19.579 8.19814 14.4844 14.4828 14.4844C20.7675 14.4844 25.8621 19.579 25.8621 25.8637Z" fill="#DEDEE6"/>
<path d="M23.7935 25.8611C23.7935 31.0032 19.6253 35.1715 14.4832 35.1715C9.34109 35.1715 5.17285 31.0032 5.17285 25.8611C5.17285 20.719 9.34109 16.5508 14.4832 16.5508C19.6253 16.5508 23.7935 20.719 23.7935 25.8611Z" fill="#F3F3FB"/>
<path d="M59.9998 11.3793C59.9998 17.664 54.9052 22.7586 48.6205 22.7586C42.3358 22.7586 37.2412 17.664 37.2412 11.3793C37.2412 5.09463 42.3358 0 48.6205 0C54.9052 0 59.9998 5.09463 59.9998 11.3793Z" fill="#DEDEE6"/>
<path d="M57.9312 11.3807C57.9312 16.5228 53.763 20.691 48.6209 20.691C43.4788 20.691 39.3105 16.5228 39.3105 11.3807C39.3105 6.23855 43.4788 2.07031 48.6209 2.07031C53.763 2.07031 57.9312 6.23855 57.9312 11.3807Z" fill="#F3F3FB"/>
<path d="M46.5516 48.6215C46.5516 54.9062 41.457 60.0008 35.1723 60.0008C28.8876 60.0008 23.793 54.9062 23.793 48.6215C23.793 42.3368 28.8876 37.2422 35.1723 37.2422C41.457 37.2422 46.5516 42.3368 46.5516 48.6215Z" fill="#DEDEE6"/>
<path d="M44.483 48.6189C44.483 53.761 40.3148 57.9293 35.1726 57.9293C30.0305 57.9293 25.8623 53.761 25.8623 48.6189C25.8623 43.4768 30.0305 39.3086 35.1726 39.3086C40.3148 39.3086 44.483 43.4768 44.483 48.6189Z" fill="#F3F3FB"/>
<path d="M55.8625 39.311C54.4144 39.311 53.1314 38.566 52.3969 37.4284C51.9731 36.7763 51.7246 36.0005 51.7246 35.1731C51.7246 32.8869 53.5764 31.0352 55.8625 31.0352C58.1487 31.0352 60.0005 32.8869 60.0005 35.1731C60.0005 37.4593 58.1487 39.311 55.8625 39.311Z" fill="#DEDEE6"/>
<path d="M55.8417 20.1841C53.8763 21.7879 51.3623 22.7602 48.6211 22.7602C47.2557 22.7602 45.952 22.5223 44.7519 22.0879V22.0773C43.5209 21.6429 42.3935 20.9913 41.4004 20.1841C41.659 16.9983 44.3382 14.4844 47.5866 14.4844H49.6555C52.904 14.4844 55.5831 16.9983 55.8417 20.1841Z" fill="#FF4755"/>
<path d="M52.7583 10.345C52.7583 12.6301 50.9055 14.4829 48.6204 14.4829C46.3352 14.4829 44.4824 12.6301 44.4824 10.345C44.4824 8.05981 46.3352 6.20703 48.6204 6.20703C50.9055 6.20703 52.7583 8.05981 52.7583 10.345Z" fill="#FF4755"/>
<path d="M35.172 59.9985C32.4202 59.9985 29.8961 59.0262 27.9307 57.4022C28.1994 54.226 30.879 51.7227 34.1169 51.7227H36.1858C39.4342 51.7227 42.1134 54.2366 42.372 57.4224L42.3826 57.433C40.4167 59.0363 37.9133 59.9985 35.172 59.9985Z" fill="url(#paint0_linear_300_265)"/>
<path d="M39.2895 47.5871C39.2895 49.8723 37.4368 51.7251 35.1516 51.7251C32.8664 51.7251 31.0137 49.8723 31.0137 47.5871C31.0137 45.302 32.8664 43.4492 35.1516 43.4492C37.4368 43.4492 39.2895 45.302 39.2895 47.5871Z" fill="url(#paint1_linear_300_265)"/>
<path d="M28.9651 0C31.2512 0 33.103 1.85176 33.103 4.13793C33.103 4.64507 33.0101 5.12089 32.8444 5.5654C32.265 7.14844 30.7446 8.27586 28.9651 8.27586C26.6789 8.27586 24.8271 6.4241 24.8271 4.13793C24.8271 1.85176 26.6789 0 28.9651 0Z" fill="#DEDEE6"/>
<path d="M14.4826 37.2407C12.4758 37.2407 10.5932 36.7235 8.95861 35.8132C8.34793 35.4819 7.77916 35.0889 7.24121 34.6444C7.50993 31.4682 10.1896 28.9648 13.4274 28.9648H15.4964C18.7448 28.9648 21.4239 31.4788 21.6825 34.6646L21.6932 34.6752C19.7272 36.2785 17.2239 37.2407 14.4826 37.2407Z" fill="#5DBCD9"/>
<path d="M18.6001 24.8293C18.6001 27.1145 16.7473 28.9673 14.4621 28.9673C12.177 28.9673 10.3242 27.1145 10.3242 24.8293C10.3242 22.5442 12.177 20.6914 14.4621 20.6914C16.7473 20.6914 18.6001 22.5442 18.6001 24.8293Z" fill="#5DBCD9"/>
<path d="M13.4485 57.9321C11.1623 57.9321 9.31055 56.0803 9.31055 53.7942C9.31055 51.508 11.1623 49.6562 13.4485 49.6562C15.4038 49.6562 17.0384 51.0115 17.4728 52.8319C17.545 53.1426 17.5864 53.4633 17.5864 53.7942C17.5864 56.0803 15.7346 57.9321 13.4485 57.9321Z" fill="#DEDEE6"/>
<path d="M4.13793 40.3438C4.86227 40.3438 5.55529 40.5301 6.14477 40.8711C7.41716 41.5747 8.27586 42.93 8.27586 44.4817C8.27586 46.7678 6.4241 48.6196 4.13793 48.6196C1.85176 48.6196 0 46.7678 0 44.4817C0 42.1955 1.85176 40.3438 4.13793 40.3438Z" fill="#DEDEE6"/>
<path d="M4.13793 0C6.4241 0 8.27586 1.85176 8.27586 4.13793C8.27586 5.7826 7.31361 7.21057 5.91746 7.86217C5.37951 8.13089 4.76882 8.27586 4.13793 8.27586C1.85176 8.27586 0 6.4241 0 4.13793C0 1.85176 1.85176 0 4.13793 0Z" fill="#DEDEE6"/>
<path d="M4.9834 8.30698L6.85183 7.41797L10.524 15.1352L8.65561 16.0242L4.9834 8.30698Z" fill="#45639C"/>
<path d="M5.23926 40.3697L8.05327 35.3125L9.86109 36.3182L7.04708 41.3759L5.23926 40.3697Z" fill="#45639C"/>
<path d="M32.4873 6.53593L33.2041 4.59375L38.3037 6.47683L37.587 8.41901L32.4873 6.53593Z" fill="#45639C"/>
<path d="M38.0713 37.5648L43.7756 21.7344L45.7213 22.435L40.017 38.2659L38.0713 37.5648Z" fill="#45639C"/>
<path d="M44.1436 41.5561L51.832 36.5625L52.9594 38.2986L45.2715 43.2922L44.1436 41.5561Z" fill="#45639C"/>
<path d="M21.3711 34.9814L22.9026 33.5898L28.2816 39.5083L26.7506 40.8999L21.3711 34.9814Z" fill="#45639C"/>
<path d="M17.2314 51.8245L23.8621 50.25L24.3395 52.2619L17.7093 53.8363L17.2314 51.8245Z" fill="#45639C"/>
<path d="M24.5586 20.4596L37.7402 14.875L38.5473 16.7803L25.3658 22.3644L24.5586 20.4596Z" fill="#45639C"/>
</g>
<defs>
<linearGradient id="paint0_linear_300_265" x1="27.9307" y1="53.2744" x2="42.7197" y2="55.1003" gradientUnits="userSpaceOnUse">
<stop stop-color="#30C917"/>
<stop offset="1" stop-color="#279A13"/>
</linearGradient>
<linearGradient id="paint1_linear_300_265" x1="31.0137" y1="45.0009" x2="39.5689" y2="45.6058" gradientUnits="userSpaceOnUse">
<stop stop-color="#30C917"/>
<stop offset="1" stop-color="#279A13"/>
</linearGradient>
<clipPath id="clip0_300_265">
<rect width="60" height="60" fill="white"/>
</clipPath>
</defs>
</svg>

<svg width="60" height="60" fill="none" xmlns="http://www.w3.org/2000/svg"><g clip-path="url(#a)"><path d="M25.862 25.864c0 6.284-5.095 11.379-11.38 11.379-6.284 0-11.378-5.095-11.378-11.38 0-6.284 5.094-11.379 11.379-11.379 6.284 0 11.38 5.095 11.38 11.38Z" fill="#DEDEE6"/><path d="M23.794 25.861a9.31 9.31 0 0 1-9.31 9.31 9.31 9.31 0 0 1-9.311-9.31 9.31 9.31 0 0 1 9.31-9.31 9.31 9.31 0 0 1 9.31 9.31Z" fill="#F3F3FB"/><path d="M60 11.38c0 6.284-5.095 11.379-11.38 11.379-6.284 0-11.379-5.095-11.379-11.38C37.241 5.095 42.336 0 48.621 0 54.904 0 60 5.095 60 11.38Z" fill="#DEDEE6"/><path d="M57.931 11.38a9.31 9.31 0 0 1-9.31 9.311 9.31 9.31 0 0 1-9.31-9.31 9.31 9.31 0 0 1 9.31-9.31 9.31 9.31 0 0 1 9.31 9.31Z" fill="#F3F3FB"/><path d="M46.552 48.621c0 6.285-5.095 11.38-11.38 11.38-6.284 0-11.379-5.095-11.379-11.38 0-6.284 5.095-11.379 11.38-11.379 6.284 0 11.379 5.095 11.379 11.38Z" fill="#DEDEE6"/><path d="M44.483 48.619a9.31 9.31 0 0 1-9.31 9.31 9.31 9.31 0 0 1-9.31-9.31 9.31 9.31 0 0 1 9.31-9.31 9.31 9.31 0 0 1 9.31 9.31Z" fill="#F3F3FB"/><path d="M55.862 39.311a4.119 4.119 0 0 1-3.465-1.883 4.137 4.137 0 0 1 3.466-6.393A4.137 4.137 0 0 1 60 35.173a4.137 4.137 0 0 1-4.139 4.138Z" fill="#DEDEE6"/><path d="M55.842 20.184a11.39 11.39 0 0 1-7.22 2.576 11.35 11.35 0 0 1-3.87-.672v-.01a11.267 11.267 0 0 1-3.352-1.894 6.218 6.218 0 0 1 6.187-5.7h2.069a6.218 6.218 0 0 1 6.186 5.7Z" fill="#FF4755"/><path d="M52.758 10.345a4.138 4.138 0 1 1-8.276 0 4.138 4.138 0 0 1 8.276 0Z" fill="#FF4755"/><path d="M35.172 59.998c-2.752 0-5.276-.972-7.241-2.596.268-3.176 2.948-5.68 6.186-5.68h2.069a6.218 6.218 0 0 1 6.186 5.7l.01.011a11.356 11.356 0 0 1-7.21 2.566Z" fill="url(#b)"/><path d="M39.29 47.587a4.138 4.138 0 1 1-8.277 0 4.138 4.138 0 0 1 8.276 0Z" fill="url(#c)"/><path d="M28.965 0a4.137 4.137 0 0 1 4.138 4.138c0 .507-.093.983-.259 1.427a4.132 4.132 0 0 1-3.879 2.71 4.137 4.137 0 0 1-4.138-4.137A4.137 4.137 0 0 1 28.965 0Z" fill="#DEDEE6"/><path d="M14.483 37.24c-2.007 0-3.89-.517-5.524-1.427a10.72 10.72 0 0 1-1.718-1.169c.269-3.176 2.949-5.68 6.186-5.68h2.07a6.218 6.218 0 0 1 6.186 5.7l.01.011a11.357 11.357 0 0 1-7.21 2.566Z" fill="#5DBCD9"/><path d="M18.6 24.83a4.138 4.138 0 1 1-8.276-.001 4.138 4.138 0 0 1 8.276 0Z" fill="#5DBCD9"/><path d="M13.448 57.932a4.137 4.137 0 0 1-4.137-4.138 4.137 4.137 0 1 1 8.275 0 4.137 4.137 0 0 1-4.137 4.138ZM4.138 40.344a4.01 4.01 0 0 1 2.007.527 4.123 4.123 0 0 1 2.13 3.61 4.137 4.137 0 0 1-4.137 4.139A4.137 4.137 0 0 1 0 44.482a4.137 4.137 0 0 1 4.138-4.138ZM4.138 0a4.137 4.137 0 0 1 4.138 4.138 4.106 4.106 0 0 1-2.359 3.724 3.987 3.987 0 0 1-1.78.414A4.137 4.137 0 0 1 0 4.138 4.137 4.137 0 0 1 4.138 0Z" fill="#DEDEE6"/><path d="m4.983 8.307 1.869-.889 3.672 7.717-1.868.89-3.673-7.718ZM5.24 40.37l2.813-5.057 1.808 1.005-2.814 5.058L5.24 40.37ZM32.487 6.536l.717-1.942 5.1 1.883-.717 1.942-5.1-1.883ZM38.071 37.565l5.705-15.83 1.945.7-5.704 15.83-1.946-.7ZM44.144 41.556l7.688-4.993 1.127 1.736-7.688 4.993-1.127-1.736ZM21.371 34.981l1.532-1.391 5.379 5.918L26.75 40.9l-5.38-5.919ZM17.231 51.825l6.631-1.575.478 2.012-6.63 1.574-.479-2.011ZM24.559 20.46l13.181-5.585.807 1.905-13.181 5.584-.807-1.904Z" fill="#45639C"/></g><defs><linearGradient id="b" x1="27.931" y1="53.274" x2="42.72" y2="55.1" gradientUnits="userSpaceOnUse"><stop stop-color="#30C917"/><stop offset="1" stop-color="#279A13"/></linearGradient><linearGradient id="c" x1="31.014" y1="45.001" x2="39.569" y2="45.606" gradientUnits="userSpaceOnUse"><stop stop-color="#30C917"/><stop offset="1" stop-color="#279A13"/></linearGradient><clipPath id="a"><path fill="#fff" d="M0 0h60v60H0z"/></clipPath></defs></svg>
